resources/svg/major-envelope.svg

<svg xmlns="http://www.w3.org/2000/svg" viewBox="0 0 20 20" fill="currentColor"><path fill-rule="evenodd" d="M0 16.5v-13c0-.8.7-1.5 1.5-1.5h17c.8 0 1.5.7 1.5 1.5v13c0 .8-.7 1.5-1.5 1.5h-17c-.8 0-1.5-.7-1.5-1.5zm18-1.2-3-1.8v-6.9l3-1.867v10.567zm-2.667.7-1.833-1.1c-.3-.2-.5-.5-.5-.9v-8c0-.4.2-.7.5-.9l1.833-1.1h-13.333v12h13.333zm-11.333-8h4v2h-4v-2zm6 4h-6v2h6v-2z"/></svg>

<svg xmlns="http://www.w3.org/2000/svg" viewBox="0 0 20 20" fill="currentColor"><path fill-rule="evenodd" d="M0 16.5v-13C0 2.7.7 2 1.5 2h17c.8 0 1.5.7 1.5 1.5v13c0 .8-.7 1.5-1.5 1.5h-17C.7 18 0 17.3 0 16.5zm18-1.2-3-1.8V6.6l3-1.867V15.3zm-2.667.7L13.5 14.9c-.3-.2-.5-.5-.5-.9V6c0-.4.2-.7.5-.9L15.333 4H2v12h13.333zM4 8h4v2H4V8zm6 4H4v2h6v-2z"/></svg>
